(Generated by PartKam Version 0.05)

G21 G90 G40

(follow path 1)
M5
T0 M6
G17
G0 X6.039340101522843 Y3.5619289340101523
G1 Z0.2 F50
M3
G1 X6.654822335025381 Y3.6421319796954315 F50
G1 X7.228426395939086 Y3.880710659898477
G1 X7.720812182741117 Y4.258883248730965
G1 X8.098984771573605 Y4.751269035532995
G1 X8.33756345177665 Y5.324873096446701
G1 X8.418781725888325 Y5.941624365482233
G1 X8.33756345177665 Y6.555837563451776
G1 X8.098984771573605 Y7.129441624365482
G1 X7.720812182741117 Y7.624365482233503
G1 X7.228426395939086 Y8.00253807106599
G1 X6.654822335025381 Y8.238578680203046
G1 X6.040609137055838 Y8.319796954314722
G1 X1.0406091370558377 Y8.32741116751269
G1 X1.0406091370558377 Y3.5558375634517763
G1 X1.0101522842639594 Y3.3274111675126905
G1 X1.0964467005076142 Y2.67258883248731
G1 X1.3477157360406091 Y2.0609137055837565
G1 X1.751269035532995 Y1.5380710659898478
G1 X2.2741116751269037 Y1.1370558375634519
G1 X2.8857868020304567 Y0.883248730964467
G1 X3.5406091370558372 Y0.7969543147208122
G1 X4.195431472081218 Y0.883248730964467
G1 X4.804568527918781 Y1.1370558375634519
G1 X5.32741116751269 Y1.5380710659898478
G1 X5.730964467005077 Y2.0609137055837565
G1 X5.9822335025380715 Y2.67258883248731
G1 X6.068527918781726 Y3.3274111675126905
G1 X6.040609137055838 Y3.5558375634517763
G1 X6.040609137055838 Y3.3274111675126905
G1 X6.040609137055838 Y3.5609137055837565
M5
G0 X6.039340101522843 Y3.5619289340101523
G1 Z0.4 F50
M3
G1 X6.654822335025381 Y3.6421319796954315 F50
G1 X7.228426395939086 Y3.880710659898477
G1 X7.720812182741117 Y4.258883248730965
G1 X8.098984771573605 Y4.751269035532995
G1 X8.33756345177665 Y5.324873096446701
G1 X8.418781725888325 Y5.941624365482233
G1 X8.33756345177665 Y6.555837563451776
G1 X8.098984771573605 Y7.129441624365482
G1 X7.720812182741117 Y7.624365482233503
G1 X7.228426395939086 Y8.00253807106599
G1 X6.654822335025381 Y8.238578680203046
G1 X6.040609137055838 Y8.319796954314722
G1 X1.0406091370558377 Y8.32741116751269
G1 X1.0406091370558377 Y3.5558375634517763
G1 X1.0101522842639594 Y3.3274111675126905
G1 X1.0964467005076142 Y2.67258883248731
G1 X1.3477157360406091 Y2.0609137055837565
G1 X1.751269035532995 Y1.5380710659898478
G1 X2.2741116751269037 Y1.1370558375634519
G1 X2.8857868020304567 Y0.883248730964467
G1 X3.5406091370558372 Y0.7969543147208122
G1 X4.195431472081218 Y0.883248730964467
G1 X4.804568527918781 Y1.1370558375634519
G1 X5.32741116751269 Y1.5380710659898478
G1 X5.730964467005077 Y2.0609137055837565
G1 X5.9822335025380715 Y2.67258883248731
G1 X6.068527918781726 Y3.3274111675126905
G1 X6.040609137055838 Y3.5558375634517763
G1 X6.040609137055838 Y3.3274111675126905
G1 X6.040609137055838 Y3.5609137055837565
M5
G0 X6.039340101522843 Y3.5619289340101523
G1 Z0.6 F50
M3
G1 X6.654822335025381 Y3.6421319796954315 F50
G1 X7.228426395939086 Y3.880710659898477
G1 X7.720812182741117 Y4.258883248730965
G1 X8.098984771573605 Y4.751269035532995
G1 X8.33756345177665 Y5.324873096446701
G1 X8.418781725888325 Y5.941624365482233
G1 X8.33756345177665 Y6.555837563451776
G1 X8.098984771573605 Y7.129441624365482
G1 X7.720812182741117 Y7.624365482233503
G1 X7.228426395939086 Y8.00253807106599
G1 X6.654822335025381 Y8.238578680203046
G1 X6.040609137055838 Y8.319796954314722
G1 X1.0406091370558377 Y8.32741116751269
G1 X1.0406091370558377 Y3.5558375634517763
G1 X1.0101522842639594 Y3.3274111675126905
G1 X1.0964467005076142 Y2.67258883248731
G1 X1.3477157360406091 Y2.0609137055837565
G1 X1.751269035532995 Y1.5380710659898478
G1 X2.2741116751269037 Y1.1370558375634519
G1 X2.8857868020304567 Y0.883248730964467
G1 X3.5406091370558372 Y0.7969543147208122
G1 X4.195431472081218 Y0.883248730964467
G1 X4.804568527918781 Y1.1370558375634519
G1 X5.32741116751269 Y1.5380710659898478
G1 X5.730964467005077 Y2.0609137055837565
G1 X5.9822335025380715 Y2.67258883248731
G1 X6.068527918781726 Y3.3274111675126905
G1 X6.040609137055838 Y3.5558375634517763
G1 X6.040609137055838 Y3.3274111675126905
G1 X6.040609137055838 Y3.5609137055837565
M5
G0 X6.039340101522843 Y3.5619289340101523
G1 Z0.8 F50
M3
G1 X6.654822335025381 Y3.6421319796954315 F50
G1 X7.228426395939086 Y3.880710659898477
G1 X7.720812182741117 Y4.258883248730965
G1 X8.098984771573605 Y4.751269035532995
G1 X8.33756345177665 Y5.324873096446701
G1 X8.418781725888325 Y5.941624365482233
G1 X8.33756345177665 Y6.555837563451776
G1 X8.098984771573605 Y7.129441624365482
G1 X7.720812182741117 Y7.624365482233503
G1 X7.228426395939086 Y8.00253807106599
G1 X6.654822335025381 Y8.238578680203046
G1 X6.040609137055838 Y8.319796954314722
G1 X1.0406091370558377 Y8.32741116751269
G1 X1.0406091370558377 Y3.5558375634517763
G1 X1.0101522842639594 Y3.3274111675126905
G1 X1.0964467005076142 Y2.67258883248731
G1 X1.3477157360406091 Y2.0609137055837565
G1 X1.751269035532995 Y1.5380710659898478
G1 X2.2741116751269037 Y1.1370558375634519
G1 X2.8857868020304567 Y0.883248730964467
G1 X3.5406091370558372 Y0.7969543147208122
G1 X4.195431472081218 Y0.883248730964467
G1 X4.804568527918781 Y1.1370558375634519
G1 X5.32741116751269 Y1.5380710659898478
G1 X5.730964467005077 Y2.0609137055837565
G1 X5.9822335025380715 Y2.67258883248731
G1 X6.068527918781726 Y3.3274111675126905
G1 X6.040609137055838 Y3.5558375634517763
G1 X6.040609137055838 Y3.3274111675126905
G1 X6.040609137055838 Y3.5609137055837565
M5
G0 X6.039340101522843 Y3.5619289340101523
G1 Z1 F50
M3
G1 X6.654822335025381 Y3.6421319796954315 F50
G1 X7.228426395939086 Y3.880710659898477
G1 X7.720812182741117 Y4.258883248730965
G1 X8.098984771573605 Y4.751269035532995
G1 X8.33756345177665 Y5.324873096446701
G1 X8.418781725888325 Y5.941624365482233
G1 X8.33756345177665 Y6.555837563451776
G1 X8.098984771573605 Y7.129441624365482
G1 X7.720812182741117 Y7.624365482233503
G1 X7.228426395939086 Y8.00253807106599
G1 X6.654822335025381 Y8.238578680203046
G1 X6.040609137055838 Y8.319796954314722
G1 X1.0406091370558377 Y8.32741116751269
G1 X1.0406091370558377 Y3.5558375634517763
G1 X1.0101522842639594 Y3.3274111675126905
G1 X1.0964467005076142 Y2.67258883248731
G1 X1.3477157360406091 Y2.0609137055837565
G1 X1.751269035532995 Y1.5380710659898478
G1 X2.2741116751269037 Y1.1370558375634519
G1 X2.8857868020304567 Y0.883248730964467
G1 X3.5406091370558372 Y0.7969543147208122
G1 X4.195431472081218 Y0.883248730964467
G1 X4.804568527918781 Y1.1370558375634519
G1 X5.32741116751269 Y1.5380710659898478
G1 X5.730964467005077 Y2.0609137055837565
G1 X5.9822335025380715 Y2.67258883248731
G1 X6.068527918781726 Y3.3274111675126905
G1 X6.040609137055838 Y3.5558375634517763
G1 X6.040609137055838 Y3.3274111675126905
G1 X6.040609137055838 Y3.5609137055837565
M5
G0 X6.039340101522843 Y3.5619289340101523
G1 Z1.2 F50
M3
G1 X6.654822335025381 Y3.6421319796954315 F50
G1 X7.228426395939086 Y3.880710659898477
G1 X7.720812182741117 Y4.258883248730965
G1 X8.098984771573605 Y4.751269035532995
G1 X8.33756345177665 Y5.324873096446701
G1 X8.418781725888325 Y5.941624365482233
G1 X8.33756345177665 Y6.555837563451776
G1 X8.098984771573605 Y7.129441624365482
G1 X7.720812182741117 Y7.624365482233503
G1 X7.228426395939086 Y8.00253807106599
G1 X6.654822335025381 Y8.238578680203046
G1 X6.040609137055838 Y8.319796954314722
G1 X1.0406091370558377 Y8.32741116751269
G1 X1.0406091370558377 Y3.5558375634517763
G1 X1.0101522842639594 Y3.3274111675126905
G1 X1.0964467005076142 Y2.67258883248731
G1 X1.3477157360406091 Y2.0609137055837565
G1 X1.751269035532995 Y1.5380710659898478
G1 X2.2741116751269037 Y1.1370558375634519
G1 X2.8857868020304567 Y0.883248730964467
G1 X3.5406091370558372 Y0.7969543147208122
G1 X4.195431472081218 Y0.883248730964467
G1 X4.804568527918781 Y1.1370558375634519
G1 X5.32741116751269 Y1.5380710659898478
G1 X5.730964467005077 Y2.0609137055837565
G1 X5.9822335025380715 Y2.67258883248731
G1 X6.068527918781726 Y3.3274111675126905
G1 X6.040609137055838 Y3.5558375634517763
G1 X6.040609137055838 Y3.3274111675126905
G1 X6.040609137055838 Y3.5609137055837565
M5
G0 X6.039340101522843 Y3.5619289340101523
G1 Z1.4 F50
M3
G1 X6.654822335025381 Y3.6421319796954315 F50
G1 X7.228426395939086 Y3.880710659898477
G1 X7.720812182741117 Y4.258883248730965
G1 X8.098984771573605 Y4.751269035532995
G1 X8.33756345177665 Y5.324873096446701
G1 X8.418781725888325 Y5.941624365482233
G1 X8.33756345177665 Y6.555837563451776
G1 X8.098984771573605 Y7.129441624365482
G1 X7.720812182741117 Y7.624365482233503
G1 X7.228426395939086 Y8.00253807106599
G1 X6.654822335025381 Y8.238578680203046
G1 X6.040609137055838 Y8.319796954314722
G1 X1.0406091370558377 Y8.32741116751269
G1 X1.0406091370558377 Y3.5558375634517763
G1 X1.0101522842639594 Y3.3274111675126905
G1 X1.0964467005076142 Y2.67258883248731
G1 X1.3477157360406091 Y2.0609137055837565
G1 X1.751269035532995 Y1.5380710659898478
G1 X2.2741116751269037 Y1.1370558375634519
G1 X2.8857868020304567 Y0.883248730964467
G1 X3.5406091370558372 Y0.7969543147208122
G1 X4.195431472081218 Y0.883248730964467
G1 X4.804568527918781 Y1.1370558375634519
G1 X5.32741116751269 Y1.5380710659898478
G1 X5.730964467005077 Y2.0609137055837565
G1 X5.9822335025380715 Y2.67258883248731
G1 X6.068527918781726 Y3.3274111675126905
G1 X6.040609137055838 Y3.5558375634517763
G1 X6.040609137055838 Y3.3274111675126905
G1 X6.040609137055838 Y3.5609137055837565
M5
G0 X6.039340101522843 Y3.5619289340101523
G1 Z1.6 F50
M3
G1 X6.654822335025381 Y3.6421319796954315 F50
G1 X7.228426395939086 Y3.880710659898477
G1 X7.720812182741117 Y4.258883248730965
G1 X8.098984771573605 Y4.751269035532995
G1 X8.33756345177665 Y5.324873096446701
G1 X8.418781725888325 Y5.941624365482233
G1 X8.33756345177665 Y6.555837563451776
G1 X8.098984771573605 Y7.129441624365482
G1 X7.720812182741117 Y7.624365482233503
G1 X7.228426395939086 Y8.00253807106599
G1 X6.654822335025381 Y8.238578680203046
G1 X6.040609137055838 Y8.319796954314722
G1 X1.0406091370558377 Y8.32741116751269
G1 X1.0406091370558377 Y3.5558375634517763
G1 X1.0101522842639594 Y3.3274111675126905
G1 X1.0964467005076142 Y2.67258883248731
G1 X1.3477157360406091 Y2.0609137055837565
G1 X1.751269035532995 Y1.5380710659898478
G1 X2.2741116751269037 Y1.1370558375634519
G1 X2.8857868020304567 Y0.883248730964467
G1 X3.5406091370558372 Y0.7969543147208122
G1 X4.195431472081218 Y0.883248730964467
G1 X4.804568527918781 Y1.1370558375634519
G1 X5.32741116751269 Y1.5380710659898478
G1 X5.730964467005077 Y2.0609137055837565
G1 X5.9822335025380715 Y2.67258883248731
G1 X6.068527918781726 Y3.3274111675126905
G1 X6.040609137055838 Y3.5558375634517763
G1 X6.040609137055838 Y3.3274111675126905
G1 X6.040609137055838 Y3.5609137055837565
M5
G0 X6.039340101522843 Y3.5619289340101523
G1 Z1.8 F50
M3
G1 X6.654822335025381 Y3.6421319796954315 F50
G1 X7.228426395939086 Y3.880710659898477
G1 X7.720812182741117 Y4.258883248730965
G1 X8.098984771573605 Y4.751269035532995
G1 X8.33756345177665 Y5.324873096446701
G1 X8.418781725888325 Y5.941624365482233
G1 X8.33756345177665 Y6.555837563451776
G1 X8.098984771573605 Y7.129441624365482
G1 X7.720812182741117 Y7.624365482233503
G1 X7.228426395939086 Y8.00253807106599
G1 X6.654822335025381 Y8.238578680203046
G1 X6.040609137055838 Y8.319796954314722
G1 X1.0406091370558377 Y8.32741116751269
G1 X1.0406091370558377 Y3.5558375634517763
G1 X1.0101522842639594 Y3.3274111675126905
G1 X1.0964467005076142 Y2.67258883248731
G1 X1.3477157360406091 Y2.0609137055837565
G1 X1.751269035532995 Y1.5380710659898478
G1 X2.2741116751269037 Y1.1370558375634519
G1 X2.8857868020304567 Y0.883248730964467
G1 X3.5406091370558372 Y0.7969543147208122
G1 X4.195431472081218 Y0.883248730964467
G1 X4.804568527918781 Y1.1370558375634519
G1 X5.32741116751269 Y1.5380710659898478
G1 X5.730964467005077 Y2.0609137055837565
G1 X5.9822335025380715 Y2.67258883248731
G1 X6.068527918781726 Y3.3274111675126905
G1 X6.040609137055838 Y3.5558375634517763
G1 X6.040609137055838 Y3.3274111675126905
G1 X6.040609137055838 Y3.5609137055837565
M5
G0 X6.039340101522843 Y3.5619289340101523
G1 Z2 F50
M3
G1 X6.654822335025381 Y3.6421319796954315 F50
G1 X7.228426395939086 Y3.880710659898477
G1 X7.720812182741117 Y4.258883248730965
G1 X8.098984771573605 Y4.751269035532995
G1 X8.33756345177665 Y5.324873096446701
G1 X8.418781725888325 Y5.941624365482233
G1 X8.33756345177665 Y6.555837563451776
G1 X8.098984771573605 Y7.129441624365482
G1 X7.720812182741117 Y7.624365482233503
G1 X7.228426395939086 Y8.00253807106599
G1 X6.654822335025381 Y8.238578680203046
G1 X6.040609137055838 Y8.319796954314722
G1 X1.0406091370558377 Y8.32741116751269
G1 X1.0406091370558377 Y3.5558375634517763
G1 X1.0101522842639594 Y3.3274111675126905
G1 X1.0964467005076142 Y2.67258883248731
G1 X1.3477157360406091 Y2.0609137055837565
G1 X1.751269035532995 Y1.5380710659898478
G1 X2.2741116751269037 Y1.1370558375634519
G1 X2.8857868020304567 Y0.883248730964467
G1 X3.5406091370558372 Y0.7969543147208122
G1 X4.195431472081218 Y0.883248730964467
G1 X4.804568527918781 Y1.1370558375634519
G1 X5.32741116751269 Y1.5380710659898478
G1 X5.730964467005077 Y2.0609137055837565
G1 X5.9822335025380715 Y2.67258883248731
G1 X6.068527918781726 Y3.3274111675126905
G1 X6.040609137055838 Y3.5558375634517763
G1 X6.040609137055838 Y3.3274111675126905
G1 X6.040609137055838 Y3.5609137055837565
M5
G0 Z3
G0 X0 Y0
M30
