(Generated by PartKam Version 0.05)

G21 G90 G40

(follow path 1)
G0 Z0.2
T0 M6
G17
G0 X4.948477157360406 Y8.998984771573603
G1 Z0.2 F50
M3
G1 X9.131979695431472 Y5.959390862944163 F50
G1 X7.535532994923858 Y1.0406091370558377
G1 X2.3629441624365484 Y1.0406091370558377
G1 X0.7639593908629441 Y5.959390862944163
G1 X4.949238578680203 Y9
M5
G0 X4.948477157360406 Y8.998984771573603
G1 Z0.4 F50
M3
G1 X9.131979695431472 Y5.959390862944163 F50
G1 X7.535532994923858 Y1.0406091370558377
G1 X2.3629441624365484 Y1.0406091370558377
G1 X0.7639593908629441 Y5.959390862944163
G1 X4.949238578680203 Y9
M5
G0 X4.948477157360406 Y8.998984771573603
G1 Z0.6 F50
M3
G1 X9.131979695431472 Y5.959390862944163 F50
G1 X7.535532994923858 Y1.0406091370558377
G1 X2.3629441624365484 Y1.0406091370558377
G1 X0.7639593908629441 Y5.959390862944163
G1 X4.949238578680203 Y9
M5
G0 X4.948477157360406 Y8.998984771573603
G1 Z0.8 F50
M3
G1 X9.131979695431472 Y5.959390862944163 F50
G1 X7.535532994923858 Y1.0406091370558377
G1 X2.3629441624365484 Y1.0406091370558377
G1 X0.7639593908629441 Y5.959390862944163
G1 X4.949238578680203 Y9
M5
G0 X4.948477157360406 Y8.998984771573603
G1 Z1 F50
M3
G1 X9.131979695431472 Y5.959390862944163 F50
G1 X7.535532994923858 Y1.0406091370558377
G1 X2.3629441624365484 Y1.0406091370558377
G1 X0.7639593908629441 Y5.959390862944163
G1 X4.949238578680203 Y9
M5
G0 X4.948477157360406 Y8.998984771573603
G1 Z1.2 F50
M3
G1 X9.131979695431472 Y5.959390862944163 F50
G1 X7.535532994923858 Y1.0406091370558377
G1 X2.3629441624365484 Y1.0406091370558377
G1 X0.7639593908629441 Y5.959390862944163
G1 X4.949238578680203 Y9
M5
G0 X4.948477157360406 Y8.998984771573603
G1 Z1.4 F50
M3
G1 X9.131979695431472 Y5.959390862944163 F50
G1 X7.535532994923858 Y1.0406091370558377
G1 X2.3629441624365484 Y1.0406091370558377
G1 X0.7639593908629441 Y5.959390862944163
G1 X4.949238578680203 Y9
M5
G0 X4.948477157360406 Y8.998984771573603
G1 Z1.6 F50
M3
G1 X9.131979695431472 Y5.959390862944163 F50
G1 X7.535532994923858 Y1.0406091370558377
G1 X2.3629441624365484 Y1.0406091370558377
G1 X0.7639593908629441 Y5.959390862944163
G1 X4.949238578680203 Y9
M5
G0 X4.948477157360406 Y8.998984771573603
G1 Z1.8 F50
M3
G1 X9.131979695431472 Y5.959390862944163 F50
G1 X7.535532994923858 Y1.0406091370558377
G1 X2.3629441624365484 Y1.0406091370558377
G1 X0.7639593908629441 Y5.959390862944163
G1 X4.949238578680203 Y9
M5
G0 X4.948477157360406 Y8.998984771573603
G1 Z2 F50
M3
G1 X9.131979695431472 Y5.959390862944163 F50
G1 X7.535532994923858 Y1.0406091370558377
G1 X2.3629441624365484 Y1.0406091370558377
G1 X0.7639593908629441 Y5.959390862944163
G1 X4.949238578680203 Y9
M5
G0 X4.948477157360406 Y8.998984771573603
G1 Z2.2 F50
M3
G1 X9.131979695431472 Y5.959390862944163 F50
G1 X7.535532994923858 Y1.0406091370558377
G1 X2.3629441624365484 Y1.0406091370558377
G1 X0.7639593908629441 Y5.959390862944163
G1 X4.949238578680203 Y9
M5
G0 X4.948477157360406 Y8.998984771573603
G1 Z2.4 F50
M3
G1 X9.131979695431472 Y5.959390862944163 F50
G1 X7.535532994923858 Y1.0406091370558377
G1 X2.3629441624365484 Y1.0406091370558377
G1 X0.7639593908629441 Y5.959390862944163
G1 X4.949238578680203 Y9
M5
G0 X4.948477157360406 Y8.998984771573603
G1 Z2.6 F50
M3
G1 X9.131979695431472 Y5.959390862944163 F50
G1 X7.535532994923858 Y1.0406091370558377
G1 X2.3629441624365484 Y1.0406091370558377
G1 X0.7639593908629441 Y5.959390862944163
G1 X4.949238578680203 Y9
M5
G0 X4.948477157360406 Y8.998984771573603
G1 Z2.8 F50
M3
G1 X9.131979695431472 Y5.959390862944163 F50
G1 X7.535532994923858 Y1.0406091370558377
G1 X2.3629441624365484 Y1.0406091370558377
G1 X0.7639593908629441 Y5.959390862944163
G1 X4.949238578680203 Y9
M5
G0 X4.948477157360406 Y8.998984771573603
G1 Z3 F50
M3
G1 X9.131979695431472 Y5.959390862944163 F50
G1 X7.535532994923858 Y1.0406091370558377
G1 X2.3629441624365484 Y1.0406091370558377
G1 X0.7639593908629441 Y5.959390862944163
G1 X4.949238578680203 Y9
M5
G0 Z4
G0 X0 Y0
M30
