(Generated by PartKam Version 0.05)

G21 G90 G40

(follow path 1)
G0 Z0.2
T0 M6
G17
G0 X2.9743654822335026 Y6.516751269035533
G1 Z0.2 F50
M3
G1 X3.7563451776649748 Y4.743654822335025 F50
G1 X5.680203045685279 Y4.954314720812183
G1 X4.538071065989848 Y3.3908629441624365
G1 X5.680203045685279 Y1.8299492385786804
G1 X3.7563451776649748 Y2.0380710659898478
G1 X2.9746192893401013 Y0.26649746192893403
G1 X2.1928934010152283 Y2.0380710659898478
G1 X0.2690355329949239 Y1.8299492385786804
G1 X1.4111675126903553 Y3.3908629441624365
G1 X0.2690355329949239 Y4.954314720812183
G1 X2.1928934010152283 Y4.743654822335025
G1 X2.9746192893401013 Y6.5177664974619285
M5
G0 X2.9743654822335026 Y6.516751269035533
G1 Z0.4 F50
M3
G1 X3.7563451776649748 Y4.743654822335025 F50
G1 X5.680203045685279 Y4.954314720812183
G1 X4.538071065989848 Y3.3908629441624365
G1 X5.680203045685279 Y1.8299492385786804
G1 X3.7563451776649748 Y2.0380710659898478
G1 X2.9746192893401013 Y0.26649746192893403
G1 X2.1928934010152283 Y2.0380710659898478
G1 X0.2690355329949239 Y1.8299492385786804
G1 X1.4111675126903553 Y3.3908629441624365
G1 X0.2690355329949239 Y4.954314720812183
G1 X2.1928934010152283 Y4.743654822335025
G1 X2.9746192893401013 Y6.5177664974619285
M5
G0 X2.9743654822335026 Y6.516751269035533
G1 Z0.6 F50
M3
G1 X3.7563451776649748 Y4.743654822335025 F50
G1 X5.680203045685279 Y4.954314720812183
G1 X4.538071065989848 Y3.3908629441624365
G1 X5.680203045685279 Y1.8299492385786804
G1 X3.7563451776649748 Y2.0380710659898478
G1 X2.9746192893401013 Y0.26649746192893403
G1 X2.1928934010152283 Y2.0380710659898478
G1 X0.2690355329949239 Y1.8299492385786804
G1 X1.4111675126903553 Y3.3908629441624365
G1 X0.2690355329949239 Y4.954314720812183
G1 X2.1928934010152283 Y4.743654822335025
G1 X2.9746192893401013 Y6.5177664974619285
M5
G0 X2.9743654822335026 Y6.516751269035533
G1 Z0.8 F50
M3
G1 X3.7563451776649748 Y4.743654822335025 F50
G1 X5.680203045685279 Y4.954314720812183
G1 X4.538071065989848 Y3.3908629441624365
G1 X5.680203045685279 Y1.8299492385786804
G1 X3.7563451776649748 Y2.0380710659898478
G1 X2.9746192893401013 Y0.26649746192893403
G1 X2.1928934010152283 Y2.0380710659898478
G1 X0.2690355329949239 Y1.8299492385786804
G1 X1.4111675126903553 Y3.3908629441624365
G1 X0.2690355329949239 Y4.954314720812183
G1 X2.1928934010152283 Y4.743654822335025
G1 X2.9746192893401013 Y6.5177664974619285
M5
G0 X2.9743654822335026 Y6.516751269035533
G1 Z1 F50
M3
G1 X3.7563451776649748 Y4.743654822335025 F50
G1 X5.680203045685279 Y4.954314720812183
G1 X4.538071065989848 Y3.3908629441624365
G1 X5.680203045685279 Y1.8299492385786804
G1 X3.7563451776649748 Y2.0380710659898478
G1 X2.9746192893401013 Y0.26649746192893403
G1 X2.1928934010152283 Y2.0380710659898478
G1 X0.2690355329949239 Y1.8299492385786804
G1 X1.4111675126903553 Y3.3908629441624365
G1 X0.2690355329949239 Y4.954314720812183
G1 X2.1928934010152283 Y4.743654822335025
G1 X2.9746192893401013 Y6.5177664974619285
M5
G0 Z2
G0 X0 Y0
M30
