(Generated by PartKam Version 0.05)

G21 G90 G40

(follow path 1)
M5
T0 M6
G17
G0 X6.23756345177665 Y6.06243654822335
G1 Z0.2 F60
M3
G1 X1.8375634517766497 Y6.063451776649746 F60
G1 X1.8375634517766497 Y9.362944162436548
G1 X0.7385786802030457 Y9.362944162436548
G1 X0.7385786802030457 Y4.961928934010152
G1 X6.238578680203045 Y4.961928934010152
G1 X6.238578680203045 Y3.2944162436548226
G1 X0.7385786802030457 Y3.2944162436548226
G1 X0.7385786802030457 Y2.248730964467005
G1 X6.238578680203045 Y2.248730964467005
G1 X6.238578680203045 Y0.5634517766497462
G1 X7.337563451776649 Y0.5634517766497462
G1 X7.337563451776649 Y4.961928934010152
G1 X7.621827411167512 Y5
G1 X7.8883248730964475 Y5.1091370558375635
G1 X8.114213197969542 Y5.284263959390863
G1 X8.289340101522843 Y5.512690355329949
G1 X8.401015228426395 Y5.776649746192893
G1 X8.436548223350254 Y6.063451776649746
G1 X8.401015228426395 Y6.347715736040609
G1 X8.289340101522843 Y6.611675126903553
G1 X8.114213197969542 Y6.84010152284264
G1 X7.8883248730964475 Y7.015228426395939
G1 X7.621827411167512 Y7.124365482233502
G1 X7.337563451776649 Y7.16243654822335
G1 X7.053299492385787 Y7.124365482233502
G1 X6.786802030456853 Y7.015228426395939
G1 X6.560913705583756 Y6.84010152284264
G1 X6.385786802030457 Y6.611675126903553
G1 X6.274111675126903 Y6.347715736040609
G1 X6.238578680203045 Y6.063451776649746
G0 X6.23756345177665 Y6.06243654822335
G1 Z0.4 F60
G1 X1.8375634517766497 Y6.063451776649746 F60
G1 X1.8375634517766497 Y9.362944162436548
G1 X0.7385786802030457 Y9.362944162436548
G1 X0.7385786802030457 Y4.961928934010152
G1 X6.238578680203045 Y4.961928934010152
G1 X6.238578680203045 Y3.2944162436548226
G1 X0.7385786802030457 Y3.2944162436548226
G1 X0.7385786802030457 Y2.248730964467005
G1 X6.238578680203045 Y2.248730964467005
G1 X6.238578680203045 Y0.5634517766497462
G1 X7.337563451776649 Y0.5634517766497462
G1 X7.337563451776649 Y4.961928934010152
G1 X7.621827411167512 Y5
G1 X7.8883248730964475 Y5.1091370558375635
G1 X8.114213197969542 Y5.284263959390863
G1 X8.289340101522843 Y5.512690355329949
G1 X8.401015228426395 Y5.776649746192893
G1 X8.436548223350254 Y6.063451776649746
G1 X8.401015228426395 Y6.347715736040609
G1 X8.289340101522843 Y6.611675126903553
G1 X8.114213197969542 Y6.84010152284264
G1 X7.8883248730964475 Y7.015228426395939
G1 X7.621827411167512 Y7.124365482233502
G1 X7.337563451776649 Y7.16243654822335
G1 X7.053299492385787 Y7.124365482233502
G1 X6.786802030456853 Y7.015228426395939
G1 X6.560913705583756 Y6.84010152284264
G1 X6.385786802030457 Y6.611675126903553
G1 X6.274111675126903 Y6.347715736040609
G1 X6.238578680203045 Y6.063451776649746
G0 X6.23756345177665 Y6.06243654822335
G1 Z0.6 F60
G1 X1.8375634517766497 Y6.063451776649746 F60
G1 X1.8375634517766497 Y9.362944162436548
G1 X0.7385786802030457 Y9.362944162436548
G1 X0.7385786802030457 Y4.961928934010152
G1 X6.238578680203045 Y4.961928934010152
G1 X6.238578680203045 Y3.2944162436548226
G1 X0.7385786802030457 Y3.2944162436548226
G1 X0.7385786802030457 Y2.248730964467005
G1 X6.238578680203045 Y2.248730964467005
G1 X6.238578680203045 Y0.5634517766497462
G1 X7.337563451776649 Y0.5634517766497462
G1 X7.337563451776649 Y4.961928934010152
G1 X7.621827411167512 Y5
G1 X7.8883248730964475 Y5.1091370558375635
G1 X8.114213197969542 Y5.284263959390863
G1 X8.289340101522843 Y5.512690355329949
G1 X8.401015228426395 Y5.776649746192893
G1 X8.436548223350254 Y6.063451776649746
G1 X8.401015228426395 Y6.347715736040609
G1 X8.289340101522843 Y6.611675126903553
G1 X8.114213197969542 Y6.84010152284264
G1 X7.8883248730964475 Y7.015228426395939
G1 X7.621827411167512 Y7.124365482233502
G1 X7.337563451776649 Y7.16243654822335
G1 X7.053299492385787 Y7.124365482233502
G1 X6.786802030456853 Y7.015228426395939
G1 X6.560913705583756 Y6.84010152284264
G1 X6.385786802030457 Y6.611675126903553
G1 X6.274111675126903 Y6.347715736040609
G1 X6.238578680203045 Y6.063451776649746
G0 X6.23756345177665 Y6.06243654822335
G1 Z0.8 F60
G1 X1.8375634517766497 Y6.063451776649746 F60
G1 X1.8375634517766497 Y9.362944162436548
G1 X0.7385786802030457 Y9.362944162436548
G1 X0.7385786802030457 Y4.961928934010152
G1 X6.238578680203045 Y4.961928934010152
G1 X6.238578680203045 Y3.2944162436548226
G1 X0.7385786802030457 Y3.2944162436548226
G1 X0.7385786802030457 Y2.248730964467005
G1 X6.238578680203045 Y2.248730964467005
G1 X6.238578680203045 Y0.5634517766497462
G1 X7.337563451776649 Y0.5634517766497462
G1 X7.337563451776649 Y4.961928934010152
G1 X7.621827411167512 Y5
G1 X7.8883248730964475 Y5.1091370558375635
G1 X8.114213197969542 Y5.284263959390863
G1 X8.289340101522843 Y5.512690355329949
G1 X8.401015228426395 Y5.776649746192893
G1 X8.436548223350254 Y6.063451776649746
G1 X8.401015228426395 Y6.347715736040609
G1 X8.289340101522843 Y6.611675126903553
G1 X8.114213197969542 Y6.84010152284264
G1 X7.8883248730964475 Y7.015228426395939
G1 X7.621827411167512 Y7.124365482233502
G1 X7.337563451776649 Y7.16243654822335
G1 X7.053299492385787 Y7.124365482233502
G1 X6.786802030456853 Y7.015228426395939
G1 X6.560913705583756 Y6.84010152284264
G1 X6.385786802030457 Y6.611675126903553
G1 X6.274111675126903 Y6.347715736040609
G1 X6.238578680203045 Y6.063451776649746
M5
G0 Z3
G0 X0 Y0
M30
